24x24/apps/appimagekit-teams-for-linux.svg

<svg xmlns="http://www.w3.org/2000/svg" width="24" height="24" version="1.1">
 <path style="opacity:0.2" d="M 19.5,3.5 A 2.5,2.5 0 0 0 17,6 2.5,2.5 0 0 0 19.5,8.5 2.5,2.5 0 0 0 22,6 2.5,2.5 0 0 0 19.5,3.5 Z m -2.75,6 C 16.3345,9.5 16,9.8345 16,10.25 V 10.5 15.568359 16 A 3.5,3.5 0 0 0 19.5,19.5 3.5,3.5 0 0 0 23,16 V 15.568359 10.5 10.25 C 23,9.8345 22.6655,9.5 22.25,9.5 Z"/>
 <path style="opacity:0.2" d="M 12.5,1.5 A 3.5,3.5 0 0 0 9,5 3.5,3.5 0 0 0 12.5,8.5 3.5,3.5 0 0 0 16,5 3.5,3.5 0 0 0 12.5,1.5 Z m -4.25,8 C 7.5575,9.5 7,10.0575 7,10.75 V 12 16.25 17 A 5.5,5.5 0 0 0 12.5,22.5 5.5,5.5 0 0 0 18,17 V 16.25 12 10.75 C 18,10.0575 17.4425,9.5 16.75,9.5 Z"/>
 <path style="fill:#5059c9" d="M 16.75,9 C 16.3345,9 16,9.3345 16,9.75 V 10 15.06818 15.49982 H 16.137695 22.862304 23 V 15.06818 10 9.75 C 23,9.3345 22.6655,9 22.25,9 Z"/>
 <circle style="fill:#5059c9" cx="19.5" cy="15.5" r="3.5"/>
 <circle style="fill:#5059c9" cx="19.5" cy="5.5" r="2.5"/>
 <path style="opacity:0.1;fill:#f4f4f7" d="M 19.5,3 A 2.5,2.5 0 0 0 17,5.5 2.5,2.5 0 0 0 17.01367,5.7578125 2.5,2.5 0 0 1 19.5,3.5 2.5,2.5 0 0 1 21.986328,5.7421875 2.5,2.5 0 0 0 22,5.5 2.5,2.5 0 0 0 19.5,3 Z M 16.75,9 C 16.3345,9 16,9.3345 16,9.75 V 10 10.25 C 16,9.8345 16.3345,9.5 16.75,9.5 h 5.5 C 22.6655,9.5 23,9.8345 23,10.25 V 10 9.75 C 23,9.3345 22.6655,9 22.25,9 Z"/>
 <circle style="fill:#7b83eb" cx="12.5" cy="4.5" r="3.5"/>
 <path style="fill:#7b83eb" d="M 8.25,9 C 7.5575,9 7,9.5575 7,10.25 v 1.25 4.25 0.75 H 7.253906 C 7.4816325,16.802497 7.840524,17 8.25,17 h 8.5 c 0.409476,0 0.768367,-0.197503 0.996094,-0.5 H 18 V 15.75 11.5 10.25 C 18,9.5575 17.4425,9 16.75,9 Z"/>
 <path style="opacity:0.2;fill:#f4f4f7" d="M 12.5,1 A 3.5,3.5 0 0 0 9,4.5 3.5,3.5 0 0 0 9.01172,4.729492 3.5,3.5 0 0 1 12.5,1.5 3.5,3.5 0 0 1 15.988281,4.770508 3.5,3.5 0 0 0 16,4.5 3.5,3.5 0 0 0 12.5,1 Z M 8.25,9 C 7.5575,9 7,9.5575 7,10.25 v 0.5 C 7,10.0575 7.5575,9.5 8.25,9.5 h 8.5 c 0.6925,0 1.25,0.5575 1.25,1.25 v -0.5 C 18,9.5575 17.4425,9 16.75,9 Z"/>
 <circle style="fill:#7b83eb" cx="12.5" cy="16.5" r="5.5"/>
 <rect style="opacity:0.1" width="12" height="12" x="1" y="5.5" rx=".818" ry=".818"/>
 <rect style="fill:#5059c9" width="12" height="12" x="1" y="5" rx=".818" ry=".818"/>
 <path style="opacity:0.2" d="m 4,8.5 v 2 h 2 v 4 h 2 v -4 h 2 v -2 z"/>
 <rect style="fill:#f4f4f7" width="6" height="2" x="4" y="8"/>
 <rect style="fill:#f4f4f7" width="4" height="2" x="10" y="-8" transform="rotate(90)"/>
 <path style="opacity:0.1;fill:#f4f4f7" d="M 1.8183594 5 C 1.3650867 5 1 5.3650867 1 5.8183594 L 1 6.3183594 C 1 5.8650867 1.3650867 5.5 1.8183594 5.5 L 12.181641 5.5 C 12.634913 5.5 13 5.8650867 13 6.3183594 L 13 5.8183594 C 13 5.3650867 12.634913 5 12.181641 5 L 1.8183594 5 z"/>
</svg>

<svg xmlns="http://www.w3.org/2000/svg" width="24" height="24"><path style="opacity:.2" d="M19.5 3.5A2.5 2.5 0 0 0 17 6a2.5 2.5 0 0 0 2.5 2.5A2.5 2.5 0 0 0 22 6a2.5 2.5 0 0 0-2.5-2.5zm-2.75 6a.748.748 0 0 0-.75.75V16a3.5 3.5 0 0 0 3.5 3.5A3.5 3.5 0 0 0 23 16v-5.75a.748.748 0 0 0-.75-.75z"/><path style="opacity:.2" d="M12.5 1.5A3.5 3.5 0 0 0 9 5a3.5 3.5 0 0 0 3.5 3.5A3.5 3.5 0 0 0 16 5a3.5 3.5 0 0 0-3.5-3.5zm-4.25 8c-.692 0-1.25.557-1.25 1.25V17a5.5 5.5 0 0 0 5.5 5.5A5.5 5.5 0 0 0 18 17v-6.25c0-.693-.558-1.25-1.25-1.25z"/><path style="fill:#5059c9" d="M16.75 9a.748.748 0 0 0-.75.75v5.75h7V9.75a.748.748 0 0 0-.75-.75z"/><circle style="fill:#5059c9" cx="19.5" cy="15.5" r="3.5"/><circle style="fill:#5059c9" cx="19.5" cy="5.5" r="2.5"/><path style="opacity:.1;fill:#f4f4f7" d="M19.5 3A2.5 2.5 0 0 0 17 5.5a2.5 2.5 0 0 0 .014.258A2.5 2.5 0 0 1 19.5 3.5a2.5 2.5 0 0 1 2.486 2.242A2.5 2.5 0 0 0 22 5.5 2.5 2.5 0 0 0 19.5 3zm-2.75 6a.748.748 0 0 0-.75.75v.5c0-.415.334-.75.75-.75h5.5c.416 0 .75.335.75.75v-.5a.748.748 0 0 0-.75-.75z"/><circle style="fill:#7b83eb" cx="12.5" cy="4.5" r="3.5"/><path style="fill:#7b83eb" d="M8.25 9C7.558 9 7 9.557 7 10.25v6.25h.254c.228.302.587.5.996.5h8.5c.41 0 .768-.198.996-.5H18v-6.25C18 9.557 17.442 9 16.75 9z"/><path style="opacity:.2;fill:#f4f4f7" d="M12.5 1A3.5 3.5 0 0 0 9 4.5a3.5 3.5 0 0 0 .012.23A3.5 3.5 0 0 1 12.5 1.5a3.5 3.5 0 0 1 3.488 3.27A3.5 3.5 0 0 0 16 4.5 3.5 3.5 0 0 0 12.5 1zM8.25 9C7.558 9 7 9.557 7 10.25v.5c0-.693.558-1.25 1.25-1.25h8.5c.693 0 1.25.557 1.25 1.25v-.5C18 9.557 17.442 9 16.75 9z"/><circle style="fill:#7b83eb" cx="12.5" cy="16.5" r="5.5"/><rect style="opacity:.1" width="12" height="12" x="1" y="5.5" rx=".818" ry=".818"/><rect style="fill:#5059c9" width="12" height="12" x="1" y="5" rx=".818" ry=".818"/><path style="opacity:.2" d="M4 8.5v2h2v4h2v-4h2v-2z"/><path style="fill:#f4f4f7" d="M4 8h6v2H4z"/><path style="fill:#f4f4f7" transform="rotate(90)" d="M10-8h4v2h-4z"/><path style="opacity:.1;fill:#f4f4f7" d="M1.818 5A.817.817 0 0 0 1 5.818v.5c0-.453.365-.818.818-.818h10.364c.453 0 .818.365.818.818v-.5A.817.817 0 0 0 12.182 5H1.818z"/></svg>
